X: 4
T:Barber's Hornpipe,The. WM.004
M:6/8
L:1/8
Q:90
S:Wm.Mittell's MS,New Romney,Kent,1799
R:Hornpipe!
O:England
A:Kent
Z:vmp.Chris Partington
K:G
D|GAB BAG|Bcd dcB|ceA BdG|FDF G2:|!
|:d|dBB BGG|GEE"sic" E2EF/G/|AFA AdA|FDDD2A|!
ddd dgd|BGFE2B|efe gec|dAFD2c/B/|!
cec BdG|AcA/G/ FED|dcB AdG|FDFG2:|]
